src/qt/rpdchain/res/img/ic-transaction-staked.svg

<?xml version="1.0" encoding="UTF-8"?>
<svg id="ic-transaction-staked" xmlns="http://www.w3.org/2000/svg" viewBox="0 0 24 24">
  <defs>
    <style>
      .cls-1 {
        fill: none;
      }

      .cls-2 {
        fill: #f53;
      }
    </style>
  </defs>
  <path id="Path_18914" data-name="Path 18914" class="cls-2" d="m18,6v-1.15c-.08-1.66-1.48-2.93-3.14-2.86-1.43.07-2.61,1.14-2.83,2.56l-.04.03-.03-.03c-.25-1.64-1.77-2.77-3.41-2.52-1.47.22-2.56,1.48-2.56,2.97v1H2v6h2v10h16v-10h2v-6h-4Zm-4-.59v-.41c0-.55.45-1,1-1s1,.45,1,1v1h-2.59l.59-.59Zm-1,2.59v8h-2v-8h2Zm-5-3c0-.55.45-1,1-1s1,.45,1,1v.41l.59.59h-2.59v-1Zm-4,3h5v2h-5v-2Zm14,12H6v-8h3v6h6v-6h3v8Zm2-10h-5v-2h5v2Z"/>
  <path id="Rectangle_4527" data-name="Rectangle 4527" class="cls-1" d="m0,0h24v24H0V0Z"/>
</svg>

<?xml version="1.0" encoding="utf-8"?>
<!-- Generator: Adobe Illustrator 28.0.0, SVG Export Plug-In . SVG Version: 6.00 Build 0)  -->
<svg version="1.1" id="Layer_1" xmlns="http://www.w3.org/2000/svg" xmlns:xlink="http://www.w3.org/1999/xlink" x="0px" y="0px"
	 viewBox="0 0 24 24" style="enable-background:new 0 0 24 24;" xml:space="preserve">
<style type="text/css">
	.st0{opacity:0.7;}
	.st1{fill:#D1D5DB;}
	.st2{fill:none;}
</style>
<g id="ic-transaction-staked" class="st0">
	<path id="Path_18914" class="st1" d="M18,6V4.9c-0.1-1.7-1.5-2.9-3.1-2.9c-1.4,0.1-2.6,1.1-2.8,2.6l0,0l0,0
		C11.7,2.9,10.2,1.8,8.6,2C7.1,2.2,6,3.5,6,5v1H2v6h2v10h16V12h2V6H18z M14,5.4V5c0-0.6,0.4-1,1-1s1,0.4,1,1v1h-2.6L14,5.4z M13,8v8
		h-2V8H13z M8,5c0-0.6,0.4-1,1-1s1,0.4,1,1v0.4L10.6,6H8V5z M4,8h5v2H4V8z M18,20H6v-8h3v6h6v-6h3V20z M20,10h-5V8h5V10z"/>
	<path id="Rectangle_4527" class="st2" d="M0,0h24v24H0V0z"/>
</g>
</svg>
